Adwaita++/actions/22/account-types-liability.svg

<svg height="22" width="22" xmlns="http://www.w3.org/2000/svg">
  <path d="m17.5 3c.831 0 1.5.669 1.5 1.5v13c0 .831-.669 1.5-1.5 1.5h-13c-.831 0-1.5-.669-1.5-1.5v-13c0-.831.669-1.5 1.5-1.5zm-3.029297 2.1523438-9.357422 5.8476562 9.357422 5.847656 1.058594-1.695312-6.644531-4.152344 6.644531-4.1523438z" fill="#444"/>
</svg>

<svg xmlns="http://www.w3.org/2000/svg" width="22" height="22" version="1.1">
 <defs>
  <style id="current-color-scheme" type="text/css">
   .ColorScheme-Text { color:#444444; } .ColorScheme-Highlight { color:#4285f4; }
  </style>
 </defs>
 <path style="fill:currentColor" class="ColorScheme-Text" d="M 17.5,3 C 18.331,3 19,3.669 19,4.5 v 13 C 19,18.331 18.331,19 17.5,19 H 4.5 C 3.669,19 3,18.331 3,17.5 V 4.5 C 3,3.669 3.669,3 4.5,3 Z M 14.470703,5.1523438 5.113281,11 14.470703,16.847656 15.529297,15.152344 8.884766,11 15.529297,6.8476562 Z"/>
</svg>
